X:124
T:Humours of Lisadell
M:4/4
L:1/8
K:Em
gf|: eB B2 eB B2|AF F2 EDB,A,|B,E E2 B,E E2|FBBA B2 gf|
eB B2 eB B2|AF F2 EDB,A,|B,E E2 DEFA|Beed e2 gf :|
eB B2 A2 FA|d2 fd e2 fe|df f2 dfbf|afdf e4 |
defd B^cdB|A2 ^GB ABde|fdd^c dfbf|fddf e2 gf :|
